src/epub/images/titlepage.svg

<?xml version="1.0" encoding="utf-8"?>
<svg xmlns="http://www.w3.org/2000/svg" xmlns:svg="http://www.w3.org/2000/svg" version="1.1" viewBox="0 0 1400 440">
	<title>The titlepage for the Standard Ebooks edition of The Prince and the Pauper, by Mark Twain</title>
	<g>
		<path d="m 396.08479,68.245613 18.33918,0 0,61.754387 17.59065,0 0,-61.754387 18.33918,0 0,-15.438597 -54.26901,0 0,15.438597 z"/>
		<path d="m 479.27924,99.029239 24.88888,0 0,30.970761 17.59065,0 0,-77.192984 -17.59065,0 0,30.783626 -24.88888,0 0,-30.783626 -17.59065,0 0,77.192984 17.59065,0 0,-30.970761 z"/>
		<path d="m 582.12427,52.807016 -44.16374,0 0,77.192984 44.16374,0 0,-15.4386 -26.5731,0 0,-15.532161 25.45029,0 0,-15.438597 -25.45029,0 0,-15.345029 26.5731,0 0,-15.438597 z"/>
		<path d="m 627.82164,52.807016 0,77.192984 17.59064,0 0,-28.63158 10.5731,0 c 15.06433,0 26.38597,-8.888888 26.38597,-24.795322 0,-16 -11.32164,-23.766082 -26.38597,-23.766082 l -28.16374,0 z m 17.59064,34.526317 0,-20.491229 4.95907,0 c 6.92398,0 13.47368,2.339181 13.47368,10.292398 0,7.859649 -6.5497,10.198831 -13.47368,10.198831 l -4.95907,0 z"/>
		<path d="m 695.13889,52.807016 0,77.192984 17.59064,0 0,-30.502925 L 736.30848,130 l 22.36257,0 -26.5731,-31.906433 c 9.45029,-2.994152 15.81287,-10.760234 15.81287,-22.362574 0,-15.157895 -10.8538,-22.923977 -25.16959,-22.923977 l -27.60234,0 z m 17.59064,34.245615 0,-20.210527 2.05848,0 c 6.64327,0 14.59649,0.467836 14.59649,10.105263 0,9.637428 -7.95322,10.105264 -14.59649,10.105264 l -2.05848,0 z"/>
		<path d="m 784.79826,52.807016 -17.59065,0 0,77.192984 17.59065,0 0,-77.192984 z"/>
		<path d="m 818.67252,82.093566 0.18714,0 L 849.54972,130 l 17.59064,0 0,-77.192984 -17.59064,0 0,47.906434 -0.18714,0 -30.69006,-47.906434 -17.59064,0 0,77.192984 17.59064,0 0,-47.906434 z"/>
		<path d="m 921.53657,114.09357 c -17.68422,0 -25.4503,-12.35088 -25.4503,-22.736846 0,-10.292397 7.76608,-22.643275 25.4503,-22.643275 8.98245,0 15.15789,4.77193 15.15789,4.77193 l 7.48538,-14.97076 c 0,0 -8.60819,-7.111112 -25.35672,-7.111112 -21.89474,0 -41.82457,17.964913 -41.82457,40.140352 0,22.081871 20.0234,39.859651 41.82457,39.859651 16.74853,0 25.35672,-7.11111 25.35672,-7.11111 l -7.48538,-14.97076 c 0,0 -6.17544,4.77193 -15.15789,4.77193 z"/>
		<path d="m 1000.1652,52.807016 -44.1637,0 0,77.192984 44.1637,0 0,-15.4386 -26.57306,0 0,-15.532161 25.45029,0 0,-15.438597 -25.45029,0 0,-15.345029 26.57306,0 0,-15.438597 z"/>
	</g>
	<g>
		<path d="m 297.11403,152.80702 -16.2807,0 -31.1579,77.19298 18.90059,0 5.7076,-15.4386 29.38012,0 5.7076,15.4386 18.90058,0 -31.15789,-77.19298 z m 0.5614,46.31579 -17.40351,0 8.60819,-22.45614 0.18713,0 8.60819,22.45614 z"/>
		<path d="m 353.78216,182.09357 0.18713,0 30.69006,47.90643 17.59065,0 0,-77.19298 -17.59065,0 0,47.90643 -0.18713,0 -30.69006,-47.90643 -17.59064,0 0,77.19298 17.59064,0 0,-47.90643 z"/>
		<path d="m 418.49416,152.80702 0,77.19298 22.36257,0 c 21.23977,0 38.92398,-16.09357 38.92398,-38.64328 0,-22.45614 -17.77778,-38.5497 -38.92398,-38.5497 l -22.36257,0 z m 17.59064,61.47368 0,-45.75439 2.71345,0 c 13.09942,0 21.98831,10.0117 21.98831,22.92398 -0.0936,12.91228 -8.98246,22.83041 -21.98831,22.83041 l -2.71345,0 z"/>
		<path d="m 513.72369,168.24561 18.33918,0 0,61.75439 17.59065,0 0,-61.75439 18.33918,0 0,-15.43859 -54.26901,0 0,15.43859 z"/>
		<path d="m 596.91814,199.02924 24.88889,0 0,30.97076 17.59065,0 0,-77.19298 -17.59065,0 0,30.78362 -24.88889,0 0,-30.78362 -17.59064,0 0,77.19298 17.59064,0 0,-30.97076 z"/>
		<path d="m 699.76316,152.80702 -44.16375,0 0,77.19298 44.16375,0 0,-15.4386 -26.5731,0 0,-15.53216 25.45029,0 0,-15.4386 -25.45029,0 0,-15.34503 26.5731,0 0,-15.43859 z"/>
		<path d="m 745.46053,152.80702 0,77.19298 17.59064,0 0,-28.63158 10.5731,0 c 15.06433,0 26.38597,-8.88889 26.38597,-24.79532 0,-16 -11.32164,-23.76608 -26.38597,-23.76608 l -28.16374,0 z m 17.59064,34.52631 0,-20.49123 4.95907,0 c 6.92397,0 13.47368,2.33919 13.47368,10.2924 0,7.85965 -6.54971,10.19883 -13.47368,10.19883 l -4.95907,0 z"/>
		<path d="m 845.95174,152.80702 -16.28071,0 L 798.51314,230 l 18.90058,0 5.70761,-15.4386 29.38011,0 5.70761,15.4386 18.90058,0 -31.15789,-77.19298 z m 0.5614,46.31579 -17.40351,0 8.60819,-22.45614 0.18713,0 8.60819,22.45614 z"/>
		<path d="m 944.35086,152.80702 -17.59064,0 0,44.63158 c 0,12.91228 -3.92983,16.65497 -12.53801,16.65497 -8.60819,0 -12.53802,-3.74269 -12.53802,-16.65497 l 0,-44.63158 -17.59064,0 0,49.77777 c 0,19.08772 10.47953,28.81872 30.12866,28.81872 19.64912,0 30.12865,-9.731 30.12865,-28.81872 l 0,-49.77777 z"/>
		<path d="m 959.65642,152.80702 0,77.19298 17.59064,0 0,-28.63158 10.5731,0 c 15.06434,0 26.38594,-8.88889 26.38594,-24.79532 0,-16 -11.3216,-23.76608 -26.38594,-23.76608 l -28.16374,0 z m 17.59064,34.52631 0,-20.49123 4.95907,0 c 6.92397,0 13.47368,2.33919 13.47368,10.2924 0,7.85965 -6.54971,10.19883 -13.47368,10.19883 l -4.95907,0 z"/>
		<path d="m 1071.1374,152.80702 -44.1637,0 0,77.19298 44.1637,0 0,-15.4386 -26.5731,0 0,-15.53216 25.4503,0 0,-15.4386 -25.4503,0 0,-15.34503 26.5731,0 0,-15.43859 z"/>
		<path d="m 1086.25,152.80702 0,77.19298 17.5907,0 0,-30.50292 23.5789,30.50292 22.3626,0 -26.5731,-31.90643 c 9.4503,-2.99416 15.8129,-10.76024 15.8129,-22.36258 0,-15.15789 -10.8538,-22.92397 -25.1696,-22.92397 l -27.6024,0 z m 17.5907,34.24561 0,-20.21053 2.0585,0 c 6.6432,0 14.5965,0.46784 14.5965,10.10527 0,9.63742 -7.9533,10.10526 -14.5965,10.10526 l -2.0585,0 z"/>
	</g>
	<g>
		<path d="m 483.95614,390 13.19298,0 -5.19298,-57.89474 -14.03509,0 -12.8421,33.40351 -12.84211,-33.40351 -14.03508,0 -5.19299,57.89474 13.19299,0 2.73684,-34.31579 0.35088,0 11.85964,33.96491 7.85965,0 11.85965,-33.96491 0.35088,0 L 483.95614,390 Z"/>
		<path d="m 536.83772,332.10526 -12.21053,0 L 501.25877,390 l 14.17544,0 4.2807,-11.57895 22.03509,0 4.2807,11.57895 14.17544,0 -23.36842,-57.89474 z m 0.42105,34.73685 -13.05263,0 6.45614,-16.84211 0.14035,0 6.45614,16.84211 z"/>
		<path d="m 567.39584,332.10526 0,57.89474 13.19298,0 0,-22.87719 17.68421,22.87719 16.77193,0 -19.92982,-23.92982 c 7.08772,-2.24562 11.85965,-8.07018 11.85965,-16.77193 0,-11.36842 -8.14035,-17.19299 -18.8772,-17.19299 l -20.70175,0 z m 13.19298,25.68421 0,-15.15789 1.54386,0 c 4.98246,0 10.94737,0.35088 10.94737,7.57895 0,7.22807 -5.96491,7.57894 -10.94737,7.57894 l -1.54386,0 z"/>
		<path d="m 675.39912,390 -26.94736,-30.45614 23.29824,-27.4386 -16,0 -19.85965,23.64913 0,-23.64913 -13.19298,0 0,57.89474 13.19298,0 0,-24.5614 21.33333,24.5614 18.17544,0 z"/>
		<path d="m 700.04603,343.68421 13.75439,0 0,46.31579 13.19298,0 0,-46.31579 13.75439,0 0,-11.57895 -40.70176,0 0,11.57895 z"/>
		<path d="m 794.91995,390 14.59649,0 16.49123,-57.89474 -14.59649,0 -9.89474,39.7193 -0.35088,0 -10.52631,-39.7193 -9.96491,0 -10.52632,39.7193 -0.35088,0 -9.89473,-39.7193 -14.66667,0 16.49123,57.89474 14.66666,0 9.26316,-32.49123 L 794.91995,390 Z"/>
		<path d="m 857.13376,332.10526 -12.21053,0 L 821.55481,390 l 14.17544,0 4.2807,-11.57895 22.03509,0 4.2807,11.57895 14.17544,0 -23.36842,-57.89474 z m 0.42105,34.73685 -13.05263,0 6.45614,-16.84211 0.14035,0 6.45614,16.84211 z"/>
		<path d="m 900.88487,332.10526 -13.19298,0 0,57.89474 13.19298,0 0,-57.89474 z"/>
		<path d="m 927.54057,354.07018 0.14036,0 23.01754,35.92982 13.19298,0 0,-57.89474 -13.19298,0 0,35.92983 -0.14035,0 -23.01755,-35.92983 -13.19298,0 0,57.89474 13.19298,0 0,-35.92982 z"/>
	</g>
</svg>

<?xml version="1.0" encoding="utf-8"?>
<svg xmlns="http://www.w3.org/2000/svg" xmlns:svg="http://www.w3.org/2000/svg" version="1.1" viewBox="0 0 1400 440">
	<title>The titlepage for the Standard Ebooks edition of The Prince and the Pauper, by Mark Twain</title>
	<g aria-label="THE PRINCE">
		<path d="m 396.08479,68.245613 h 18.33918 V 130 h 17.59065 V 68.245613 H 450.3538 V 52.807016 h -54.26901 z"/>
		<path d="m 479.27924,99.029239 h 24.88888 V 130 h 17.59065 V 52.807016 H 504.16812 V 83.590642 H 479.27924 V 52.807016 H 461.68859 V 130 h 17.59065 z"/>
		<path d="M 582.12427,52.807016 H 537.96053 V 130 h 44.16374 v -15.4386 h -26.5731 V 99.029239 h 25.45029 V 83.590642 H 555.55117 V 68.245613 h 26.5731 z"/>
		<path d="M 627.82164,52.807016 V 130 h 17.59064 v -28.63158 h 10.5731 c 15.06433,0 26.38597,-8.888888 26.38597,-24.795322 0,-16 -11.32164,-23.766082 -26.38597,-23.766082 z m 17.59064,34.526317 V 66.842104 h 4.95907 c 6.92398,0 13.47368,2.339181 13.47368,10.292398 0,7.859649 -6.5497,10.198831 -13.47368,10.198831 z"/>
		<path d="M 695.13889,52.807016 V 130 h 17.59064 V 99.497075 L 736.30848,130 h 22.36257 l -26.5731,-31.906433 c 9.45029,-2.994152 15.81287,-10.760234 15.81287,-22.362574 0,-15.157895 -10.8538,-22.923977 -25.16959,-22.923977 z m 17.59064,34.245615 V 66.842104 h 2.05848 c 6.64327,0 14.59649,0.467836 14.59649,10.105263 0,9.637428 -7.95322,10.105264 -14.59649,10.105264 z"/>
		<path d="M 784.79826,52.807016 H 767.20761 V 130 h 17.59065 z"/>
		<path d="m 818.67252,82.093566 h 0.18714 L 849.54972,130 h 17.59064 V 52.807016 h -17.59064 v 47.906434 h -0.18714 L 818.67252,52.807016 H 801.08188 V 130 h 17.59064 z"/>
		<path d="m 921.53657,114.09357 c -17.68422,0 -25.4503,-12.35088 -25.4503,-22.736846 0,-10.292397 7.76608,-22.643275 25.4503,-22.643275 8.98245,0 15.15789,4.77193 15.15789,4.77193 l 7.48538,-14.97076 c 0,0 -8.60819,-7.111112 -25.35672,-7.111112 -21.89474,0 -41.82457,17.964913 -41.82457,40.140352 0,22.081871 20.0234,39.859651 41.82457,39.859651 16.74853,0 25.35672,-7.11111 25.35672,-7.11111 l -7.48538,-14.97076 c 0,0 -6.17544,4.77193 -15.15789,4.77193 z"/>
		<path d="M 1000.1652,52.807016 H 956.0015 V 130 h 44.1637 V 114.5614 H 973.59214 V 99.029239 h 25.45029 V 83.590642 H 973.59214 V 68.245613 h 26.57306 z"/>
	</g>
	<g aria-label="AND THE PAUPER">
		<path d="m 297.11403,152.80702 h -16.2807 L 249.67543,230 h 18.90059 l 5.7076,-15.4386 h 29.38012 L 309.37134,230 h 18.90058 z m 0.5614,46.31579 h -17.40351 l 8.60819,-22.45614 h 0.18713 z"/>
		<path d="m 353.78216,182.09357 h 0.18713 L 384.65935,230 H 402.25 v -77.19298 h -17.59065 v 47.90643 h -0.18713 L 353.78216,152.80702 H 336.19152 V 230 h 17.59064 z"/>
		<path d="M 418.49416,152.80702 V 230 h 22.36257 c 21.23977,0 38.92398,-16.09357 38.92398,-38.64328 0,-22.45614 -17.77778,-38.5497 -38.92398,-38.5497 z m 17.59064,61.47368 v -45.75439 h 2.71345 c 13.09942,0 21.98831,10.0117 21.98831,22.92398 -0.0936,12.91228 -8.98246,22.83041 -21.98831,22.83041 z"/>
		<path d="m 513.72369,168.24561 h 18.33918 V 230 h 17.59065 v -61.75439 h 18.33918 v -15.43859 h -54.26901 z"/>
		<path d="m 596.91814,199.02924 h 24.88889 V 230 h 17.59065 v -77.19298 h -17.59065 v 30.78362 H 596.91814 V 152.80702 H 579.3275 V 230 h 17.59064 z"/>
		<path d="M 699.76316,152.80702 H 655.59941 V 230 h 44.16375 v -15.4386 h -26.5731 v -15.53216 h 25.45029 v -15.4386 h -25.45029 v -15.34503 h 26.5731 z"/>
		<path d="M 745.46053,152.80702 V 230 h 17.59064 v -28.63158 h 10.5731 c 15.06433,0 26.38597,-8.88889 26.38597,-24.79532 0,-16 -11.32164,-23.76608 -26.38597,-23.76608 z m 17.59064,34.52631 V 166.8421 h 4.95907 c 6.92397,0 13.47368,2.33919 13.47368,10.2924 0,7.85965 -6.54971,10.19883 -13.47368,10.19883 z"/>
		<path d="M 845.95174,152.80702 H 829.67103 L 798.51314,230 h 18.90058 l 5.70761,-15.4386 h 29.38011 L 858.20905,230 h 18.90058 z m 0.5614,46.31579 h -17.40351 l 8.60819,-22.45614 h 0.18713 z"/>
		<path d="m 944.35086,152.80702 h -17.59064 v 44.63158 c 0,12.91228 -3.92983,16.65497 -12.53801,16.65497 -8.60819,0 -12.53802,-3.74269 -12.53802,-16.65497 v -44.63158 h -17.59064 v 49.77777 c 0,19.08772 10.47953,28.81872 30.12866,28.81872 19.64912,0 30.12865,-9.731 30.12865,-28.81872 z"/>
		<path d="M 959.65642,152.80702 V 230 h 17.59064 v -28.63158 h 10.5731 c 15.06434,0 26.38594,-8.88889 26.38594,-24.79532 0,-16 -11.3216,-23.76608 -26.38594,-23.76608 z m 17.59064,34.52631 V 166.8421 h 4.95907 c 6.92397,0 13.47368,2.33919 13.47368,10.2924 0,7.85965 -6.54971,10.19883 -13.47368,10.19883 z"/>
		<path d="m 1071.1374,152.80702 h -44.1637 V 230 h 44.1637 v -15.4386 h -26.5731 v -15.53216 h 25.4503 v -15.4386 h -25.4503 v -15.34503 h 26.5731 z"/>
		<path d="M 1086.25,152.80702 V 230 h 17.5907 V 199.49708 L 1127.4196,230 h 22.3626 l -26.5731,-31.90643 c 9.4503,-2.99416 15.8129,-10.76024 15.8129,-22.36258 0,-15.15789 -10.8538,-22.92397 -25.1696,-22.92397 z m 17.5907,34.24561 V 166.8421 h 2.0585 c 6.6432,0 14.5965,0.46784 14.5965,10.10527 0,9.63742 -7.9533,10.10526 -14.5965,10.10526 z"/>
	</g>
	<g aria-label="MARK TWAIN">
		<path d="m 483.95614,390 h 13.19298 l -5.19298,-57.89474 h -14.03509 l -12.8421,33.40351 -12.84211,-33.40351 H 438.20176 L 433.00877,390 h 13.19299 l 2.73684,-34.31579 h 0.35088 l 11.85964,33.96491 h 7.85965 l 11.85965,-33.96491 h 0.35088 z"/>
		<path d="M 536.83772,332.10526 H 524.62719 L 501.25877,390 h 14.17544 l 4.2807,-11.57895 H 541.75 L 546.0307,390 h 14.17544 z m 0.42105,34.73685 H 524.20614 L 530.66228,350 h 0.14035 z"/>
		<path d="M 567.39584,332.10526 V 390 h 13.19298 V 367.12281 L 598.27303,390 h 16.77193 l -19.92982,-23.92982 c 7.08772,-2.24562 11.85965,-8.07018 11.85965,-16.77193 0,-11.36842 -8.14035,-17.19299 -18.8772,-17.19299 z m 13.19298,25.68421 v -15.15789 h 1.54386 c 4.98246,0 10.94737,0.35088 10.94737,7.57895 0,7.22807 -5.96491,7.57894 -10.94737,7.57894 z"/>
		<path d="M 675.39912,390 648.45176,359.54386 671.75,332.10526 h -16 l -19.85965,23.64913 V 332.10526 H 622.69737 V 390 h 13.19298 V 365.4386 L 657.22368,390 Z"/>
		<path d="m 700.04603,343.68421 h 13.75439 V 390 h 13.19298 v -46.31579 h 13.75439 v -11.57895 h -40.70176 z"/>
		<path d="m 794.91995,390 h 14.59649 l 16.49123,-57.89474 h -14.59649 l -9.89474,39.7193 h -0.35088 l -10.52631,-39.7193 h -9.96491 l -10.52632,39.7193 h -0.35088 l -9.89473,-39.7193 H 745.23574 L 761.72697,390 h 14.66666 l 9.26316,-32.49123 z"/>
		<path d="M 857.13376,332.10526 H 844.92323 L 821.55481,390 h 14.17544 l 4.2807,-11.57895 h 22.03509 L 866.32674,390 h 14.17544 z m 0.42105,34.73685 H 844.50218 L 850.95832,350 h 0.14035 z"/>
		<path d="M 900.88487,332.10526 H 887.69189 V 390 h 13.19298 z"/>
		<path d="m 927.54057,354.07018 h 0.14036 L 950.69847,390 h 13.19298 v -57.89474 h -13.19298 v 35.92983 h -0.14035 L 927.54057,332.10526 H 914.34759 V 390 h 13.19298 z"/>
	</g>
</svg>
